flaticon/household/office-chair-3.svg

<svg xmlns="http://www.w3.org/2000/svg" width="32" height="32" viewBox="0 0 24 24">
    <path d="M 16.800781 14.800781 L 20.398438 14.800781 L 20.398438 9.199219 L 17.601562 9.199219 L 17.601562 1.140625 C 17.601562 0.511719 17.085938 0 16.457031 0 L 7.542969 0 C 6.914062 0 6.398438 0.511719 6.398438 1.140625 L 6.398438 9.199219 L 3.601562 9.199219 L 3.601562 14.800781 L 10.398438 14.800781 L 10.398438 16 L 10.800781 16 L 10.800781 17.199219 L 11.601562 17.199219 L 11.601562 18 L 10.800781 18 L 10.800781 18.480469 L 5.910156 19.609375 C 5.898438 19.613281 5.890625 19.621094 5.878906 19.625 C 5.851562 19.632812 5.828125 19.644531 5.804688 19.65625 C 5.78125 19.671875 5.761719 19.683594 5.742188 19.699219 C 5.722656 19.714844 5.707031 19.734375 5.691406 19.753906 C 5.675781 19.773438 5.660156 19.792969 5.648438 19.816406 C 5.636719 19.839844 5.628906 19.863281 5.621094 19.886719 C 5.613281 19.914062 5.609375 19.9375 5.605469 19.964844 C 5.605469 19.976562 5.601562 19.988281 5.601562 20 L 5.601562 20.421875 C 4.703125 20.519531 4 21.277344 4 22.199219 C 4 23.191406 4.808594 24 5.800781 24 C 6.792969 24 7.601562 23.191406 7.601562 22.199219 C 7.601562 21.417969 7.097656 20.757812 6.398438 20.511719 L 6.398438 20.316406 L 10.800781 19.304688 L 10.800781 19.433594 L 9.832031 20.402344 C 9.820312 20.402344 9.8125 20.398438 9.800781 20.398438 C 8.808594 20.398438 8 21.207031 8 22.199219 C 8 23.191406 8.808594 24 9.800781 24 C 10.792969 24 11.601562 23.191406 11.601562 22.199219 C 11.601562 21.539062 11.238281 20.96875 10.710938 20.65625 L 11.367188 20 L 12.632812 20 L 13.289062 20.65625 C 12.761719 20.96875 12.398438 21.539062 12.398438 22.199219 C 12.398438 23.191406 13.207031 24 14.199219 24 C 15.191406 24 16 23.191406 16 22.199219 C 16 21.207031 15.191406 20.398438 14.199219 20.398438 C 14.1875 20.398438 14.179688 20.402344 14.167969 20.402344 L 13.199219 19.433594 L 13.199219 19.304688 L 17.601562 20.316406 L 17.601562 20.511719 C 16.902344 20.757812 16.398438 21.417969 16.398438 22.199219 C 16.398438 23.191406 17.207031 24 18.199219 24 C 19.191406 24 20 23.191406 20 22.199219 C 20 21.277344 19.296875 20.519531 18.398438 20.421875 L 18.398438 20 C 18.398438 19.988281 18.394531 19.976562 18.394531 19.964844 C 18.390625 19.9375 18.386719 19.914062 18.378906 19.886719 C 18.371094 19.863281 18.363281 19.839844 18.351562 19.816406 C 18.339844 19.792969 18.324219 19.773438 18.308594 19.753906 C 18.292969 19.734375 18.277344 19.714844 18.257812 19.699219 C 18.238281 19.683594 18.21875 19.671875 18.195312 19.65625 C 18.171875 19.644531 18.148438 19.632812 18.121094 19.625 C 18.109375 19.621094 18.101562 19.613281 18.089844 19.609375 L 13.199219 18.480469 L 13.199219 18 L 12.398438 18 L 12.398438 17.199219 L 13.199219 17.199219 L 13.199219 16 L 13.601562 16 L 13.601562 14.964844 L 14.917969 16.28125 C 14.953125 16.320312 15 16.347656 15.046875 16.371094 C 15.097656 16.390625 15.148438 16.398438 15.199219 16.398438 L 16.398438 16.398438 C 16.621094 16.398438 16.800781 16.222656 16.800781 16 C 16.800781 15.777344 16.621094 15.601562 16.398438 15.601562 L 15.367188 15.601562 L 14.566406 14.800781 Z M 6.800781 22.199219 C 6.800781 22.75 6.351562 23.199219 5.800781 23.199219 C 5.25 23.199219 4.800781 22.75 4.800781 22.199219 C 4.800781 21.648438 5.25 21.199219 5.800781 21.199219 C 6.351562 21.199219 6.800781 21.648438 6.800781 22.199219 Z M 9.800781 23.199219 C 9.25 23.199219 8.800781 22.75 8.800781 22.199219 C 8.800781 21.648438 9.25 21.199219 9.800781 21.199219 C 10.351562 21.199219 10.800781 21.648438 10.800781 22.199219 C 10.800781 22.75 10.351562 23.199219 9.800781 23.199219 Z M 15.199219 22.199219 C 15.199219 22.75 14.75 23.199219 14.199219 23.199219 C 13.648438 23.199219 13.199219 22.75 13.199219 22.199219 C 13.199219 21.648438 13.648438 21.199219 14.199219 21.199219 C 14.75 21.199219 15.199219 21.648438 15.199219 22.199219 Z M 19.199219 22.199219 C 19.199219 22.75 18.75 23.199219 18.199219 23.199219 C 17.648438 23.199219 17.199219 22.75 17.199219 22.199219 C 17.199219 21.648438 17.648438 21.199219 18.199219 21.199219 C 18.75 21.199219 19.199219 21.648438 19.199219 22.199219 Z M 11.601562 18.800781 L 12.398438 18.800781 L 12.398438 19.199219 L 11.601562 19.199219 Z M 19.601562 10 L 19.601562 14 L 17.601562 14 L 17.601562 10 Z M 7.199219 1.140625 C 7.199219 0.953125 7.351562 0.800781 7.542969 0.800781 L 16.457031 0.800781 C 16.648438 0.800781 16.800781 0.953125 16.800781 1.140625 L 16.800781 11.199219 L 7.199219 11.199219 Z M 6.398438 14 L 4.398438 14 L 4.398438 10 L 6.398438 10 Z M 7.199219 14 L 7.199219 12 L 16.800781 12 L 16.800781 14 Z M 12.800781 14.800781 L 12.800781 15.199219 L 11.199219 15.199219 L 11.199219 14.800781 Z M 12.398438 16.398438 L 11.601562 16.398438 L 11.601562 16 L 12.398438 16 Z M 12.398438 16.398438"/>
    <path d="M9.199219 3.199219L9.601562 3.199219 9.601562 3.601562C9.601562 3.820312 9.777344 4 10 4 10.222656 4 10.398438 3.820312 10.398438 3.601562L10.398438 3.199219 10.800781 3.199219C11.019531 3.199219 11.199219 3.019531 11.199219 2.800781 11.199219 2.578125 11.019531 2.398438 10.800781 2.398438L10.398438 2.398438 10.398438 2C10.398438 1.777344 10.222656 1.601562 10 1.601562 9.777344 1.601562 9.601562 1.777344 9.601562 2L9.601562 2.398438 9.199219 2.398438C8.980469 2.398438 8.800781 2.578125 8.800781 2.800781 8.800781 3.019531 8.980469 3.199219 9.199219 3.199219zM13.199219 3.199219L13.601562 3.199219 13.601562 3.601562C13.601562 3.820312 13.777344 4 14 4 14.222656 4 14.398438 3.820312 14.398438 3.601562L14.398438 3.199219 14.800781 3.199219C15.019531 3.199219 15.199219 3.019531 15.199219 2.800781 15.199219 2.578125 15.019531 2.398438 14.800781 2.398438L14.398438 2.398438 14.398438 2C14.398438 1.777344 14.222656 1.601562 14 1.601562 13.777344 1.601562 13.601562 1.777344 13.601562 2L13.601562 2.398438 13.199219 2.398438C12.980469 2.398438 12.800781 2.578125 12.800781 2.800781 12.800781 3.019531 12.980469 3.199219 13.199219 3.199219zM9.199219 6.398438L9.601562 6.398438 9.601562 6.800781C9.601562 7.019531 9.777344 7.199219 10 7.199219 10.222656 7.199219 10.398438 7.019531 10.398438 6.800781L10.398438 6.398438 10.800781 6.398438C11.019531 6.398438 11.199219 6.222656 11.199219 6 11.199219 5.777344 11.019531 5.601562 10.800781 5.601562L10.398438 5.601562 10.398438 5.199219C10.398438 4.980469 10.222656 4.800781 10 4.800781 9.777344 4.800781 9.601562 4.980469 9.601562 5.199219L9.601562 5.601562 9.199219 5.601562C8.980469 5.601562 8.800781 5.777344 8.800781 6 8.800781 6.222656 8.980469 6.398438 9.199219 6.398438zM13.199219 6.398438L13.601562 6.398438 13.601562 6.800781C13.601562 7.019531 13.777344 7.199219 14 7.199219 14.222656 7.199219 14.398438 7.019531 14.398438 6.800781L14.398438 6.398438 14.800781 6.398438C15.019531 6.398438 15.199219 6.222656 15.199219 6 15.199219 5.777344 15.019531 5.601562 14.800781 5.601562L14.398438 5.601562 14.398438 5.199219C14.398438 4.980469 14.222656 4.800781 14 4.800781 13.777344 4.800781 13.601562 4.980469 13.601562 5.199219L13.601562 5.601562 13.199219 5.601562C12.980469 5.601562 12.800781 5.777344 12.800781 6 12.800781 6.222656 12.980469 6.398438 13.199219 6.398438zM9.199219 9.601562L9.601562 9.601562 9.601562 10C9.601562 10.222656 9.777344 10.398438 10 10.398438 10.222656 10.398438 10.398438 10.222656 10.398438 10L10.398438 9.601562 10.800781 9.601562C11.019531 9.601562 11.199219 9.421875 11.199219 9.199219 11.199219 8.980469 11.019531 8.800781 10.800781 8.800781L10.398438 8.800781 10.398438 8.398438C10.398438 8.179688 10.222656 8 10 8 9.777344 8 9.601562 8.179688 9.601562 8.398438L9.601562 8.800781 9.199219 8.800781C8.980469 8.800781 8.800781 8.980469 8.800781 9.199219 8.800781 9.421875 8.980469 9.601562 9.199219 9.601562zM13.199219 9.601562L13.601562 9.601562 13.601562 10C13.601562 10.222656 13.777344 10.398438 14 10.398438 14.222656 10.398438 14.398438 10.222656 14.398438 10L14.398438 9.601562 14.800781 9.601562C15.019531 9.601562 15.199219 9.421875 15.199219 9.199219 15.199219 8.980469 15.019531 8.800781 14.800781 8.800781L14.398438 8.800781 14.398438 8.398438C14.398438 8.179688 14.222656 8 14 8 13.777344 8 13.601562 8.179688 13.601562 8.398438L13.601562 8.800781 13.199219 8.800781C12.980469 8.800781 12.800781 8.980469 12.800781 9.199219 12.800781 9.421875 12.980469 9.601562 13.199219 9.601562zM13.199219 9.601562"/>
</svg>

<svg xmlns="http://www.w3.org/2000/svg" width="32" height="32" viewBox="0 0 24 24">
    <path d="M16.8 14.8h3.598V9.2h-2.796V1.14c0-.628-.516-1.14-1.145-1.14H7.543c-.629 0-1.145.512-1.145 1.14V9.2H3.602v5.6h6.796V16h.403v1.2h.8v.8h-.8v.48l-4.89 1.13c-.013.003-.02.011-.032.015-.027.008-.05.02-.074.031-.024.016-.043.028-.063.043-.02.016-.035.035-.05.055-.016.02-.032.039-.044.062a.522.522 0 0 0-.043.149c0 .012-.003.023-.003.035v.422A1.794 1.794 0 0 0 4 22.199C4 23.191 4.809 24 5.8 24c.993 0 1.802-.809 1.802-1.8 0-.782-.504-1.442-1.204-1.688v-.196l4.403-1.011v.129l-.969.968c-.012 0-.02-.004-.031-.004-.992 0-1.801.809-1.801 1.801C8 23.191 8.809 24 9.8 24c.993 0 1.802-.809 1.802-1.8 0-.66-.364-1.231-.891-1.544l.656-.656h1.266l.656.656c-.527.313-.89.883-.89 1.543 0 .992.808 1.801 1.8 1.801S16 23.191 16 22.2c0-.993-.809-1.802-1.8-1.802-.012 0-.02.004-.032.004l-.969-.968v-.13l4.403 1.012v.196c-.7.246-1.204.906-1.204 1.687 0 .992.809 1.801 1.801 1.801.992 0 1.801-.809 1.801-1.8 0-.923-.703-1.68-1.602-1.778V20c0-.012-.003-.023-.003-.035a.553.553 0 0 0-.043-.149c-.012-.023-.028-.043-.043-.062-.016-.02-.032-.04-.051-.055-.02-.015-.04-.027-.063-.043a.423.423 0 0 0-.074-.031c-.012-.004-.02-.012-.031-.016L13.2 18.48V18h-.802v-.8h.801V16h.403v-1.035l1.316 1.316c.035.04.082.067.129.09.05.02.101.027.152.027h1.2a.398.398 0 1 0 0-.796h-1.032l-.8-.801zm-10 7.4c0 .55-.448 1-1 1-.55 0-1-.45-1-1 0-.552.45-1 1-1 .552 0 1 .448 1 1zm3 1c-.55 0-1-.45-1-1 0-.552.45-1 1-1 .552 0 1 .448 1 1 0 .55-.448 1-1 1zm5.4-1c0 .55-.45 1-1 1-.552 0-1-.45-1-1 0-.552.448-1 1-1 .55 0 1 .448 1 1zm4 0c0 .55-.45 1-1 1-.552 0-1-.45-1-1 0-.552.448-1 1-1 .55 0 1 .448 1 1zm-7.598-3.4h.796v.4h-.796zm8-8.8v4h-2v-4zM7.199 1.14A.34.34 0 0 1 7.543.8h8.914a.34.34 0 0 1 .344.34V11.2H7.199zM6.4 14h-2v-4h2zm.8 0v-2h9.602v2zm5.602.8v.4h-1.602v-.4zm-.403 1.598h-.796V16h.796zm0 0"/>
    <path d="M9.2 3.2h.402v.402a.398.398 0 1 0 .796 0v-.403h.403a.4.4 0 0 0 0-.8h-.403V2A.395.395 0 0 0 10 1.602.395.395 0 0 0 9.602 2v.398h-.403a.401.401 0 0 0 0 .801zm0 0M13.2 3.2h.402v.402a.398.398 0 1 0 .796 0v-.403h.403a.4.4 0 0 0 0-.8h-.403V2A.395.395 0 0 0 14 1.602a.395.395 0 0 0-.398.398v.398h-.403a.401.401 0 0 0 0 .801zm0 0M9.2 6.398h.402v.403a.398.398 0 1 0 .796 0v-.403h.403a.398.398 0 1 0 0-.796h-.403v-.403a.398.398 0 1 0-.796 0v.403h-.403a.398.398 0 1 0 0 .796zm0 0M13.2 6.398h.402v.403a.398.398 0 1 0 .796 0v-.403h.403a.398.398 0 1 0 0-.796h-.403v-.403a.398.398 0 1 0-.796 0v.403h-.403a.398.398 0 1 0 0 .796zm0 0M9.2 9.602h.402V10c0 .223.175.398.398.398a.395.395 0 0 0 .398-.398v-.398h.403a.401.401 0 0 0 0-.801h-.403v-.403a.398.398 0 1 0-.796 0v.403h-.403a.4.4 0 0 0 0 .8zm0 0M13.2 9.602h.402V10c0 .223.175.398.398.398a.395.395 0 0 0 .398-.398v-.398h.403a.401.401 0 0 0 0-.801h-.403v-.403a.398.398 0 1 0-.796 0v.403h-.403a.4.4 0 0 0 0 .8zm0 0"/>
</svg>
